X:1
T:The Souls We Brought to Jesus
T:The Souls We Brought to Jesus
T:Edmund Simon Lorenz
T:Alexander M. McRae, 1914
T:Public Domain Courtesy of the Cyber Hymnal™
T:Public Domain Courtesy of the Cyber Hymnal™
C:Edmund Simon Lorenz
Z:Public Domain
Z:Courtesy of the Cyber Hymnal™
%%score ( 1 2 ) 3
L:1/8
Q:1/4=90
M:4/4
K:D
V:1 treble 
V:2 treble 
V:3 bass 
V:1
 [FA]>[^E^G] [FB]>[FA] [DF]2 [C=E]>D | [DF]>[FA] [Fd]>[Ac] [GB]4 | %2
w: 1.~There is won- drous joy when the|Sav- ior’s voice we hear,|
w: 2.~When from sin and shame souls to|ho- li- ness as- cend,|
w: 3.~La- bor shall be sweet, tri- als|cease to harm or fret,|
w: 4.~Then we’ll la- bor on, striv- ing|souls for Christ to win,|
 [FB]>[FA] [DF]>[CE] D>[DA] [DA]>[DF] | [DF]4 [CE]2 z2 | [FA]>[^E^G] [FB]>[FA] [DF]2 [C=E]>D | %5
w: When His blood from con- dem- na- tion|frees us;|But a deep- er bliss shall in|
w: Bound- less joy and ho- ly rap- ture|seize us;|Deep- er bliss a- waits, ec- sta-|
w: From our bur- dens sore this hope will|ease us;|In our crowns of life Christ will|
w: Earth- ly joys ne’er sa- tis- fy or|please us;|Look- ing to the end, when Heav’n’s|
 [DF]>[FA] [Fd]>[Dc] [DB]4 | D>[DE] [DF]>[DG] [DF]>[DA] [DA]>[DF] | [CE]4 D2 z2 || %8
w: Heav’n to us ap- pear,|When we greet the souls we brought to|Je- sus!|
w: sy that shall not end,|When we greet the souls we brought to|Je- sus!|
w: won- drous jew- els set,|For we’ll greet the souls we brought to|Je- sus!|
w: courts we en- ter in,|When we greet the souls we brought to|Je- sus!|
"^Refrain" [Fd]>[Gd] [Ad]>[Ac] [Ac] [GB]2 z | [Bd]>[Bd] [Bd]>[GB] [FA]2 z2 | %10
w: ||
w: That will be a glad- ness!|That will be a joy!|
w: ||
w: ||
 D>[DE] [DF]>[EG] [GB]>[FA] [Fd]>[DF] | [DF]4 [CE]2 z2 | [FA]>[^E^G] [FB]>[FA] [DF]2 [C=E]>D | %13
w: |||
w: When we greet the souls we brought to|Je- sus!|Oh, what songs of praise shall our|
w: |||
w: |||
 [DF]>[FA] [Fd]>[Dc] [DB]4 | D>[DE] [DF]>[DG] [DF]>[DA] [DA]>[DF] | [CE]4 D2 z2 |] %16
w: |||
w: ran- somed pow’rs em- ploy,|When we greet the souls we brought to|Je- sus!|
w: |||
w: |||
V:2
 x15/2 D/ | x8 | x4 D3/2 x5/2 | x8 | x15/2 D/ | x8 | D3/2 x13/2 | x4 D2 x2 || x8 | x8 | %10
 D3/2 x13/2 | x8 | x15/2 D/ | x8 | D3/2 x13/2 | x4 D2 x2 |] %16
V:3
 [D,D]>[D,D] [D,D]>[D,D] [D,A,]2 [D,G,]>[D,F,] | [D,A,]>[D,A,] [D,A,]>[D,D] [G,D]4 | %2
 [D,D]>[D,D] [D,A,]>[E,A,] [F,A,]>[F,A,] [F,A,]>[F,A,] | [A,,A,]4 [A,,A,]2 z2 | %4
 [D,A,]>[D,D] [D,D]>[D,D] [D,A,]2 [D,G,]>[D,F,] | [D,A,]>[D,A,] [D,A,]>[D,F,] [G,,G,]4 | %6
 [B,,F,]>[B,,F,] [B,,B,]>[_B,,G,] [A,,A,]>[A,,F,] [A,,F,]>[A,,A,] | [A,,G,]4 [D,F,]2 z2 || %8
 [D,A,]>[E,A,] [D,D]>[B,,D] [G,D] [G,D]2 z | [G,D]>[G,D] [G,D]>[G,D] [D,D]2 z2 | %10
 [D,F,]>[D,G,] [D,A,]>[D,A,] [D,D]>[D,D] [D,A,]>[D,A,] | [A,,A,]4 [A,,A,]2 z2 | %12
 [D,A,]>[D,D] [D,D]>[D,D] [D,A,]2 [D,G,]>[D,F,] | [D,A,]>[D,A,] [D,A,]>[D,F,] [G,,G,]4 | %14
 [B,,F,]>[B,,F,] [B,,B,]>[_B,,G,] [A,,A,]>[A,,F,] [A,,F,]>[A,,A,] | [A,,G,]4 [D,F,]2 z2 |] %16

